Obsidian/places/22/start-here-debian.svg

<svg height="22" width="22" xmlns="http://www.w3.org/2000/svg"><path d="m10.558057.0049687c-1.5328515-.078674-2.8515884.7920444-4.0623324 1.4611295a.17266337.16897577 0 0 0 -.010223.00501c-1.2360288.7843153-2.3235966 1.8508363-2.9118955 3.209975-1.3900469 1.6385201-1.6827416 3.8534266-1.5415901 5.8720408l-.00255-.01501c-.055576 2.774908.8978092 5.587293 2.7406045 7.718466 1.7581348 2.130595 4.3978833 3.763045 7.2912351 3.742891a.17313737.16943965 0 0 0 .02811-.33776c-1.3374076-.222746-2.5031839-1.014043-3.6430556-1.766368-.826109-.812327-1.7819003-1.470732-2.3724636-2.396852l-.00255-.0026c-.5235698-.835555-.8237673-1.817504-1.1683426-2.769544a.17266337.16897577 0 0 0 -.038349-.05754c-.8493533-.88872-1.3565498-2.034219-1.3038314-3.240008a.17266337.16897577 0 0 0 0-.02752c-.2677022-2.2159141.3770648-4.5732979 1.8739395-6.2648438 1.0946102-.7066006 2.0414462-1.5865545 3.2135633-2.04408a.17266337.16897577 0 0 0 .030682-.017514c1.1796838-.765225 2.6492328-.9422638 4.0572188-.8531593 2.534992.3104411 4.757527 2.5183929 5.003137 5.0113739a.17266337.16897577 0 0 0 .01534.05754c.136233.2818545.09697.625588.0409 1.0007726-.0523.3499416-.106745.7236002.02301 1.0783338-.261424 2.4972638-3.1426 4.4949408-5.616705 3.7328858-1.015498-.35592-1.833433-1.222491-2.2344109-2.229222-.4005556-1.005672-.3866454-2.1354258.2300879-3.0373493l.0027-.0025c.928304-1.262941 2.925143-1.7145957 4.259083-.8356473a.17266337.16897577 0 0 0 .240315-.2351824c-.477843-.6978501-1.464108-1.0174036-2.311107-.9957696h-.0051c-1.380978.0061-2.6189985.9053665-3.177769 2.1016244-1.0417673 1.8422109-.361121 4.3813902 1.533921 5.4266952.0088.01546.01073.02138.01789.03502-.07231-.03224-.148863-.0678-.219861-.107577-.04706-.02636-.09126-.05052-.125266-.07006-.017-.0097-.02986-.02015-.04346-.02751-.01361-.0074-.01508-.01038-.05368-.02252a.17266337.16897577 0 0 0 -.06903-.0076c-.06118-.04622-.107753-.08082-.176401-.132603-.06304-.04756-.1234591-.09375-.1764015-.130102-.026466-.01818-.050233-.03363-.074134-.04754-.023901-.0139-.039259-.02864-.094581-.04003-.00695-.0014-.013478-.0018-.023012-.0026-.0095-.000772-.035018-.000078-.035785 0-.0007837.000078-.04539.0123-.046023.01255-.0006172.000235-.055802.03213-.056242.03252-.0004455.000398-.040628.05448-.040904.05504-.0002718.000565-.015246.0518-.015338.05255-.000091.000736-.00112.02909 0 .04003.00112.01089.00317.01979.00511.02752.015869.06186.033649.07255.053698.100083.040076.05503.1002932.12555.1994103.23268a.17266337.16897577 0 0 0 .00777.01c.7682192.717548 1.7727232 1.09151 2.8121882 1.240959.0079.0011.0152.0038.02301.005.0015.000365.0036-.000361.0051 0 .479352.106207 1.01823.132594 1.395867.08006l-.06647-.332756c-.358735.08753-.738701.0029-1.150439-.06255 2.166863.20891 4.458532-.817811 5.555347-2.689579l-.02046.02502c.646741-.72526.812026-1.697043 1.209241-2.4318812a.17266337.16897577 0 0 0 .01789-.06255c.114023-1.0359227.011001-2.0850463-.373253-3.0673709-.06443-.2144553-.03811-.3271275-.02046-.3552746.01766-.02815.02176-.03033.08436-.01501.125213.03063.348084.2294324.334907.5304099a.17266337.16897577 0 0 0 0 .03253c.0231.1543403.04099.2593704.0537.3277535.0064.03419.01191.05756.01789.08006.003.01125.0012.01977.01534.04754.0036.0069.01762.02717.01789.02752.000137.000176.02288.02491.02301.02502.00013.000113.04846.02747.04858.02752.000123.00005.08682.01251.08693.01251.000113-.000012.08171-.02995.08181-.03002.000106-.000074.04081-.0399.0409-.04003.000097-.000135.0178-.02983.01789-.03002.000178-.00039.0085-.02487.01022-.03253.0017-.0076.0019-.0128.0027-.01751.0012-.0094.0024-.01661.0027-.02252.000467-.01181.000332-.02155 0-.03253-.000664-.02194-.0028-.04669-.0051-.07756-.0047-.06173-.01296-.1432362-.02301-.2376843-.04085-.3776239-.111036-.9350292-.176852-1.175743-.392476-1.6774098-1.751298-2.9248705-3.187998-3.745395a.17266337.16897577 0 0 0 -.0078-.00501c-1.101446-.5632394-2.358479-.6470108-3.46653-.9732462-.457452-.1275741-.903287-.1217497-1.324284-.1301006-.420999-.008351-.816475-.02903-1.193902-.1826412a.17266337.16897577 0 0 0 -.05624-.012515z" fill="#bebebe" stroke-width="1.294892"/></svg>

<?xml version="1.0" encoding="UTF-8" standalone="no"?>
<svg
   xmlns:dc="http://purl.org/dc/elements/1.1/"
   xmlns:cc="http://creativecommons.org/ns#"
   xmlns:rdf="http://www.w3.org/1999/02/22-rdf-syntax-ns#"
   xmlns:svg="http://www.w3.org/2000/svg"
   xmlns="http://www.w3.org/2000/svg"
   xmlns:xlink="http://www.w3.org/1999/xlink"
   version="1.1"
   id="svg10994"
   height="22"
   width="22">
  <defs
     id="defs10996">
    <linearGradient
       y2="21.386522"
       x2="27.557428"
       y1="7.162672"
       x1="27.557428"
       gradientTransform="matrix(0.62762637,0,0,0.79043346,1.97277,-3.8155921)"
       gradientUnits="userSpaceOnUse"
       id="linearGradient4440-9"
       xlink:href="#linearGradient3454-2-5-0-3-4-1" />
    <linearGradient
       id="linearGradient3454-2-5-0-3-4-1">
      <stop
         id="stop3456-4-9-38-1-8-8"
         style="stop-color:#ffffff;stop-opacity:1"
         offset="0" />
      <stop
         id="stop3458-39-80-3-5-5-8"
         style="stop-color:#ffffff;stop-opacity:0.23529412"
         offset="0.0097359" />
      <stop
         id="stop3460-7-0-2-4-2-7"
         style="stop-color:#ffffff;stop-opacity:0.15686275"
         offset="0.99001008" />
      <stop
         id="stop3462-0-9-8-7-2-3"
         style="stop-color:#ffffff;stop-opacity:0.39215687"
         offset="1" />
    </linearGradient>
    <linearGradient
       y2="36.657963"
       x2="22.809399"
       y1="49.629246"
       x1="22.934725"
       gradientTransform="matrix(0.54761895,0,0,0.48299421,-2.10685,-7.2449071)"
       gradientUnits="userSpaceOnUse"
       id="linearGradient4436-4"
       xlink:href="#linearGradient6129-963-697-142-998-580-273-5-3" />
    <linearGradient
       id="linearGradient6129-963-697-142-998-580-273-5-3">
      <stop
         offset="0"
         style="stop-color:#0a0a0a;stop-opacity:0.498"
         id="stop2661-1-2" />
      <stop
         offset="1"
         style="stop-color:#0a0a0a;stop-opacity:0"
         id="stop2663-85-8" />
    </linearGradient>
    <linearGradient
       y2="43.761127"
       x2="35.792694"
       y1="17.118193"
       x1="35.792694"
       gradientTransform="matrix(0.4666607,0,0,0.4821427,-0.16384998,-7.4553496)"
       gradientUnits="userSpaceOnUse"
       id="linearGradient4430-9"
       xlink:href="#linearGradient4632-0-6-4-7" />
    <linearGradient
       id="linearGradient4632-0-6-4-3-4-0">
      <stop
         id="stop4634-4-4-7-7-4-8"
         offset="0"
         style="stop-color:#bababa;stop-opacity:1;" />
      <stop
         id="stop4636-3-1-5-1-3-9"
         offset="1"
         style="stop-color:#838383;stop-opacity:1;" />
    </linearGradient>
    <linearGradient
       y2="34.143417"
       x2="21.37039"
       y1="4.73244"
       x1="21.37039"
       gradientTransform="matrix(0.43131243,0,0,0.48638011,0.98956,-4.8145871)"
       gradientUnits="userSpaceOnUse"
       id="linearGradient4418-4"
       xlink:href="#linearGradient4325-0" />
    <linearGradient
       id="linearGradient4325-0">
      <stop
         id="stop4327-4"
         style="stop-color:#ffffff;stop-opacity:1"
         offset="0" />
      <stop
         id="stop4329-5"
         style="stop-color:#ffffff;stop-opacity:0.23529412"
         offset="0.1106325" />
      <stop
         id="stop4331-6"
         style="stop-color:#ffffff;stop-opacity:0.15686275"
         offset="0.99001008" />
      <stop
         id="stop4333-7"
         style="stop-color:#ffffff;stop-opacity:0.39215687"
         offset="1" />
    </linearGradient>
    <linearGradient
       id="linearGradient4646-7-4-3-5-6">
      <stop
         id="stop4648-8-0-3-6-5"
         style="stop-color:#f9f9f9;stop-opacity:1"
         offset="0" />
      <stop
         id="stop4650-1-7-3-4-8"
         style="stop-color:#d8d8d8;stop-opacity:1"
         offset="1" />
    </linearGradient>
    <linearGradient
       id="linearGradient3104-8-8-97-4-6-11-5-5-0-5">
      <stop
         id="stop3106-5-4-3-5-0-2-1-0-6-6"
         style="stop-color:#000000;stop-opacity:0.32173914"
         offset="0" />
      <stop
         id="stop3108-4-3-7-8-2-0-7-9-1-4"
         style="stop-color:#000000;stop-opacity:0.27826086"
         offset="1" />
    </linearGradient>
    <linearGradient
       xlink:href="#linearGradient3104-8-8-97-4-6-11-5-5-0-5"
       id="linearGradient10992"
       gradientUnits="userSpaceOnUse"
       gradientTransform="matrix(0.40212523,0,0,0.398023,52.35056,-7.7909371)"
       x1="-51.786404"
       y1="53.514328"
       x2="-51.786404"
       y2="3.6336823" />
    <linearGradient
       id="linearGradient4632-0-6-4-7">
      <stop
         id="stop4634-4-4-7-5"
         offset="0"
         style="stop-color:#55a7f3;stop-opacity:1;" />
      <stop
         id="stop4636-3-1-5-3"
         offset="1"
         style="stop-color:#1374cf;stop-opacity:1;" />
    </linearGradient>
  </defs>
  <metadata
     id="metadata10999">
    <rdf:RDF>
      <cc:Work
         rdf:about="">
        <dc:format>image/svg+xml</dc:format>
        <dc:type
           rdf:resource="http://purl.org/dc/dcmitype/StillImage" />
        <dc:title></dc:title>
      </cc:Work>
    </rdf:RDF>
  </metadata>
  <path
     style="display:inline;fill:#bebebe;fill-opacity:1;stroke-width:1.29489243"
     id="path4004"
     d="M 10.558057,0.0049687 C 9.0252055,-0.0737053 7.7064686,0.7970131 6.4957246,1.4660982 a 0.17266337,0.16897577 0 0 0 -0.010223,0.00501 C 5.2494728,2.2554235 4.161905,3.3219445 3.5736061,4.6810832 2.1835592,6.3196033 1.8908645,8.5345098 2.032016,10.553124 l -0.00255,-0.01501 c -0.055576,2.774908 0.8978092,5.587293 2.7406045,7.718466 1.7581348,2.130595 4.3978833,3.763045 7.2912351,3.742891 a 0.17313737,0.16943965 0 0 0 0.02811,-0.33776 C 10.752008,21.438965 9.5862317,20.647668 8.44636,19.895343 7.620251,19.083016 6.6644597,18.424611 6.0738964,17.498491 l -0.00255,-0.0026 C 5.5477766,16.660336 5.2475791,15.678387 4.9030038,14.726347 a 0.17266337,0.16897577 0 0 0 -0.038349,-0.05754 C 4.0153015,13.780087 3.508105,12.634588 3.5608234,11.428799 a 0.17266337,0.16897577 0 0 0 0,-0.02752 C 3.2931212,9.1853649 3.9378882,6.8279811 5.4347629,5.1364352 6.5293731,4.4298346 7.4762091,3.5498807 8.6483262,3.0923552 a 0.17266337,0.16897577 0 0 0 0.030682,-0.017514 C 9.858692,2.3096162 11.328241,2.1325774 12.736227,2.2216819 c 2.534992,0.3104411 4.757527,2.5183929 5.003137,5.0113739 a 0.17266337,0.16897577 0 0 0 0.01534,0.05754 c 0.136233,0.2818545 0.09697,0.625588 0.0409,1.0007726 -0.0523,0.3499416 -0.106745,0.7236002 0.02301,1.0783338 -0.261424,2.4972638 -3.1426,4.4949408 -5.616705,3.7328858 C 11.186411,12.746668 10.368476,11.880097 9.9674981,10.873366 9.5669425,9.867694 9.5808527,8.7379402 10.197586,7.8360167 l 0.0027,-0.0025 C 11.12859,6.5705757 13.125429,6.118921 14.459369,6.9978694 A 0.17266337,0.16897577 0 0 0 14.699684,6.762687 C 14.221841,6.0648369 13.235576,5.7452834 12.388577,5.7669174 h -0.0051 c -1.380978,0.0061 -2.6189985,0.9053665 -3.177769,2.1016244 -1.0417673,1.8422109 -0.361121,4.3813902 1.533921,5.4266952 0.0088,0.01546 0.01073,0.02138 0.01789,0.03502 -0.07231,-0.03224 -0.148863,-0.0678 -0.219861,-0.107577 -0.04706,-0.02636 -0.09126,-0.05052 -0.125266,-0.07006 -0.017,-0.0097 -0.02986,-0.02015 -0.04346,-0.02751 -0.01361,-0.0074 -0.01508,-0.01038 -0.05368,-0.02252 a 0.17266337,0.16897577 0 0 0 -0.06903,-0.0076 c -0.06118,-0.04622 -0.107753,-0.08082 -0.176401,-0.132603 -0.06304,-0.04756 -0.1234591,-0.09375 -0.1764015,-0.130102 -0.026466,-0.01818 -0.050233,-0.03363 -0.074134,-0.04754 -0.023901,-0.0139 -0.039259,-0.02864 -0.094581,-0.04003 -0.00695,-0.0014 -0.013478,-0.0018 -0.023012,-0.0026 -0.0095,-7.72e-4 -0.035018,-7.8e-5 -0.035785,0 -7.837e-4,7.8e-5 -0.04539,0.0123 -0.046023,0.01255 -6.172e-4,2.35e-4 -0.055802,0.03213 -0.056242,0.03252 -4.455e-4,3.98e-4 -0.040628,0.05448 -0.040904,0.05504 -2.718e-4,5.65e-4 -0.015246,0.0518 -0.015338,0.05255 -9.1e-5,7.36e-4 -0.00112,0.02909 0,0.04003 0.00112,0.01089 0.00317,0.01979 0.00511,0.02752 0.015869,0.06186 0.033649,0.07255 0.053698,0.100083 0.040076,0.05503 0.1002932,0.12555 0.1994103,0.23268 a 0.17266337,0.16897577 0 0 0 0.00777,0.01 c 0.7682192,0.717548 1.7727232,1.09151 2.8121882,1.240959 0.0079,0.0011 0.0152,0.0038 0.02301,0.005 0.0015,3.65e-4 0.0036,-3.61e-4 0.0051,0 0.479352,0.106207 1.01823,0.132594 1.395867,0.08006 l -0.06647,-0.332756 c -0.358735,0.08753 -0.738701,0.0029 -1.150439,-0.06255 2.166863,0.20891 4.458532,-0.817811 5.555347,-2.689579 l -0.02046,0.02502 c 0.646741,-0.72526 0.812026,-1.697043 1.209241,-2.4318812 a 0.17266337,0.16897577 0 0 0 0.01789,-0.06255 C 19.668686,8.0408881 19.565664,6.9917645 19.18141,6.0094399 19.11698,5.7949846 19.1433,5.6823124 19.16095,5.6541653 c 0.01766,-0.02815 0.02176,-0.03033 0.08436,-0.01501 0.125213,0.03063 0.348084,0.2294324 0.334907,0.5304099 a 0.17266337,0.16897577 0 0 0 0,0.03253 c 0.0231,0.1543403 0.04099,0.2593704 0.0537,0.3277535 0.0064,0.03419 0.01191,0.05756 0.01789,0.08006 0.003,0.01125 0.0012,0.01977 0.01534,0.04754 0.0036,0.0069 0.01762,0.02717 0.01789,0.02752 1.37e-4,1.76e-4 0.02288,0.02491 0.02301,0.02502 1.3e-4,1.13e-4 0.04846,0.02747 0.04858,0.02752 1.23e-4,5e-5 0.08682,0.01251 0.08693,0.01251 1.13e-4,-1.2e-5 0.08171,-0.02995 0.08181,-0.03002 1.06e-4,-7.4e-5 0.04081,-0.0399 0.0409,-0.04003 9.7e-5,-1.35e-4 0.0178,-0.02983 0.01789,-0.03002 1.78e-4,-3.9e-4 0.0085,-0.02487 0.01022,-0.03253 0.0017,-0.0076 0.0019,-0.0128 0.0027,-0.01751 0.0012,-0.0094 0.0024,-0.01661 0.0027,-0.02252 4.67e-4,-0.01181 3.32e-4,-0.02155 0,-0.03253 -6.64e-4,-0.02194 -0.0028,-0.04669 -0.0051,-0.07756 -0.0047,-0.06173 -0.01296,-0.1432362 -0.02301,-0.2376843 C 19.930817,5.8519905 19.860631,5.2945852 19.794815,5.0538714 19.402339,3.3764616 18.043517,2.1290009 16.606817,1.3084764 a 0.17266337,0.16897577 0 0 0 -0.0078,-0.00501 C 15.497571,0.740227 14.240538,0.6564556 13.132487,0.3302202 12.675035,0.2026461 12.2292,0.2084705 11.808203,0.2001196 11.387204,0.1917686 10.991728,0.1710896 10.614301,0.0174784 a 0.17266337,0.16897577 0 0 0 -0.05624,-0.012515 z" />
</svg>
